src/images/header-telegramm-icon.svg

<svg width="16" height="14" viewBox="0 0 16 14" fill="none" xmlns="http://www.w3.org/2000/svg">
<path d="M0.981195 6.73317L4.49578 8.04369L5.86586 12.4518C5.92543 12.7496 6.28284 12.8092 6.52112 12.6305L8.48689 11.0221C8.66559 10.8434 8.96344 10.8434 9.20172 11.0221L12.7163 13.5836C12.9546 13.7623 13.312 13.6432 13.3715 13.3453L15.9926 0.835844C16.0521 0.538 15.7543 0.240158 15.4565 0.359296L0.981195 5.95878C0.623781 6.07792 0.623781 6.61403 0.981195 6.73317ZM5.68716 7.38843L12.5971 3.15903C12.7163 3.09947 12.8354 3.27817 12.7163 3.33774L7.05723 8.63938C6.87853 8.81809 6.69982 9.05636 6.69982 9.35421L6.52112 10.7839C6.52112 10.9626 6.22327 11.0221 6.1637 10.7839L5.44887 8.16283C5.27016 7.86498 5.38931 7.50757 5.68716 7.38843Z" fill="white"/>
</svg>

<svg width="16" height="14" fill="none" xmlns="http://www.w3.org/2000/svg"><path d="m.981 6.733 3.515 1.31 1.37 4.409c.06.298.417.357.655.178l1.966-1.608c.179-.179.476-.179.715 0l3.514 2.562c.239.178.596.06.655-.239L15.993.835c.06-.297-.239-.595-.537-.476L.982 5.96c-.357.119-.357.655 0 .774Zm4.706.655 6.91-4.229c.12-.06.238.12.12.179l-5.66 5.301c-.178.18-.357.417-.357.715l-.179 1.43c0 .179-.298.238-.357 0l-.715-2.621c-.179-.298-.06-.655.238-.775Z" fill="#fff"/></svg>
